X:124
T:A l'entrada del temps clar
C:Anonyme
R:Ballade
M:3/4
L:1/4
K:C
B2c | d2d | d2B | A2z | B2c | d2z | 
B2c | d2d | d2B | A2z | B2G | A2z |
B2c | d2d | d2B | A2z | B2c | d2z | 
B2c | d2d | d2B | A2B | A2G | A2A | (G/F/ED) | E2z ||
G2G | (G2E) | F2F | (FED) | E(ED) | (C2B,) | C>(CD) | E2z |
C>(CD) | EzG | (AGF/E/) | F(FE) | (D2C) | D(DB,) | C3 |]





